!!!OTL: Jungbrunnen
!!!ARE: Europa, Mitteleuropa, Deutschland
!!!SCT: A0133B
!!!YEM: Copyright 1995, estate of Helmut Schaffrath.
**kern
*ICvox
*Ivox
*M4/2
*k[b-e-]
*g:
{2g
=1
2g
2a
2b-
2g
=2
1fn
2g}
{2a
=3
2b-
2cc
1a
=4
1g
2r}
{2g
=5
2g
2a
2b-
2g
=6
1fn
2g}
{2a
=7
2b-
2cc
1a
=8
1g
2r}
{2a
=9
2fn
2fn
2g
2a
=10
1b-
2cc}
{2b-
=11
2a
2g
2fn
2g
=12
1a
2r}
{2a
=13
2g
2g
2a
2g
=14
1fn
2g}
{2a
=15
2b-
2cc
2b-
2a
=16
2g
2f#
2g}
==
!!!AGN: Romanze, Ballade, Lied
!! Praetorius Mus. Sion. VII No. 74 (1609)
!!!ONB: ESAC (Essen Associative Code) Database: ALTDEU
!!!AMT: simple quadruple
!!!AIN: vox
!!!EED: Helmut Schaffrath
!!!EEV: 1.0
*-
